X:1
T:Title
%%score { ( 1 3 ) | ( 2 4 ) }
L:1/8
M:4/4
K:A
V:1 treble nm="Grand Piano"
V:3 treble 
V:2 bass 
V:4 bass 
V:1
 z4 z2[Q:1/4=100] [A,CE]2 | [CEA]2 [A,CE]2 [A,DF]2 [A,CE]2 | [CEA]6 [A,CE]2 | z4 z2 A2 | %4
[M:3/4] [Ge]4 [A^d]2 |[M:1/4] d2 |[M:4/4] c2 B2 A2 E2 | z4 A2 z2 | [EAc]2 [DFB]2 [CEA]2 [B,EG]2 | %9
[M:3/4] [CEA]6 |[M:1/4] E2 |[M:4/4] A6 z2 | c6 z2 | d2 c2 B2 z A, |[M:3/4] [Ge]4 [A^d]2 | %15
[M:1/4] d2 |[M:4/4] c2 B2 A2 E2 | z4 A2 z2 | [EAc]2 [DFB]2 [CEA]2 [B,EG]2 | %19
[M:7/4] [CEA]6 z2 z2 z4 |] %20
V:2
 z4 z2 A,,2 | A,,2 A,,2 A,,2 G,,2 | A,,6 A,,2 | [A,CE]2 [A,C]2 [A,E]2 .[F,CF]2 | %4
[M:3/4] B,4- [F,B,]2 |[M:1/4] [G,B,E]2 |[M:4/4] [A,E]2 [E,G,D]2 [F,A,C]2 [C,A,]2 | %7
 [D,A,D]2 [B,,E,]2 .[A,,E,]2 z G | C,2 D,2 E,2 E,2 |[M:3/4] A,,6 |[M:1/4] B,2 | %11
[M:4/4] C2 A,,2 A,,2[K:treble] C2 | E2 [A,E]2 [A,E]2 [CEA]2 | %13
 [B,EG]2 [A,EA]2[K:bass] [G,E]2 .[F,CF]2 |[M:3/4] B,4- [F,B,]2 |[M:1/4] [G,B,E]2 | %16
[M:4/4] [A,E]2 [E,G,D]2 [F,A,C]2 [C,A,]2 | [D,A,D]2 [B,,E,]2 .[A,,E,]2 z G | C,2 D,2 E,2 E,2 | %19
[M:7/4] A,,6 z2 z2 z4 |] %20
V:3
 x8 | x8 | x8 | A2 E2 c2 z A, |[M:3/4] x6 |[M:1/4] x2 |[M:4/4] x8 | F2 [DG]2 C[CE] .[Fd]2 | x8 | %9
[M:3/4] x6 |[M:1/4] x2 |[M:4/4] z2 [CE]2 [CE]2 E2 | z2 A2 A2 e2 | z4 z2 A2 |[M:3/4] x6 | %15
[M:1/4] x2 |[M:4/4] x8 | F2 [DG]2 C[CE] .[Fd]2 | x8 |[M:7/4] x14 |] %20
V:4
 x8 | x8 | x8 | x8 |[M:3/4] E,4 z2 |[M:1/4] x2 |[M:4/4] x8 | z4 z2 [B,,B,]2 | x8 |[M:3/4] x6 | %10
[M:1/4] x2 |[M:4/4] x6[K:treble] x2 | x8 | x4[K:bass] x4 |[M:3/4] E,4 z2 |[M:1/4] x2 |[M:4/4] x8 | %17
 z4 z2 [B,,B,]2 | x8 |[M:7/4] x14 |] %20

